packages/core/src/svgs/tokens/branded/ES.svg

<svg width="24" height="24" viewBox="0 0 24 24" fill="none" xmlns="http://www.w3.org/2000/svg">
<path d="M17.6247 8.80061C17.7897 8.35065 17.4647 7.98069 17.4748 7.52075C17.4748 7.45575 17.4947 7.44575 17.5397 7.49575L21.8743 11.9003C21.9354 11.9633 21.9766 12.0428 21.9926 12.1291C22.0087 12.2155 21.9987 12.3046 21.9642 12.3852C21.9392 12.4352 21.9093 12.4852 21.8642 12.5252L18.0046 16.2949C17.7797 16.5098 17.7047 16.4699 17.7646 16.1648C18.1047 14.4751 17.4647 12.2402 15.7799 11.4503C14.3901 10.8004 12.3802 10.8154 10.9753 10.5804C9.99042 10.4155 9.18555 9.62053 9.39053 8.58064C9.71044 6.9458 12.0902 6.76581 13.3301 7.20578C14.2201 7.52574 14.3901 7.95569 14.72 8.67563C14.795 8.8306 14.9699 8.9256 15.2449 8.95059C15.6199 8.9906 15.9949 9.00059 16.3549 9.00059C16.7097 9.00059 17.0597 9.00059 17.4048 8.97059C17.4538 8.96598 17.5004 8.94756 17.5394 8.91748C17.5782 8.88738 17.6079 8.84685 17.6247 8.80061Z" fill="#4D4D4D"/>
<path d="M6.52017 15.45L6.76016 16.3448C6.77515 16.3949 6.76016 16.4398 6.70515 16.4649C6.63516 16.4948 6.57516 16.4898 6.53017 16.4349C5.09298 14.9098 3.62619 13.413 2.13062 11.9453C1.95564 11.7653 1.95564 11.5953 2.13562 11.4204L6.45519 7.27077C6.63516 7.10578 6.70515 7.14078 6.67516 7.38575C6.64016 7.66572 6.60517 7.99569 6.57516 8.38065C6.34519 11.1054 8.41998 13.1201 10.9747 13.2601C12.4196 13.3401 14.5994 13.0602 14.8743 14.57C15.0793 15.7249 14.1694 16.6348 13.0845 16.8848C11.4847 17.2497 10.2848 16.7498 9.49487 15.385C9.14991 14.7951 7.39508 15.025 6.77015 15.0849C6.70828 15.0922 6.65029 15.1188 6.60449 15.161C6.55869 15.2032 6.52742 15.2589 6.51518 15.3199C6.50593 15.3611 6.50593 15.4038 6.51518 15.4449L6.52017 15.45Z" fill="#8C1A09"/>
</svg>

<svg xmlns="http://www.w3.org/2000/svg" width="24" height="24" fill="none" viewBox="0 0 24 24">
    <path fill="#4D4D4D" d="M17.625 8.8c.165-.45-.16-.82-.15-1.28q-.001-.098.065-.024l4.334 4.404a.45.45 0 0 1 .09.485.5.5 0 0 1-.1.14l-3.86 3.77c-.224.215-.3.175-.24-.13.34-1.69-.3-3.925-1.984-4.715-1.39-.65-3.4-.635-4.805-.87-.985-.165-1.79-.96-1.584-2 .32-1.634 2.7-1.814 3.94-1.374.89.32 1.06.75 1.389 1.47.075.155.25.25.525.275.375.04.75.05 1.11.05.355 0 .705 0 1.05-.03a.26.26 0 0 0 .22-.17"/>
    <path fill="#8C1A09" d="m6.52 15.45.24.895c.015.05 0 .095-.055.12-.07.03-.13.025-.175-.03a161 161 0 0 0-4.4-4.49c-.174-.18-.174-.35.006-.525l4.32-4.15c.18-.164.25-.13.22.116q-.054.419-.1.995c-.23 2.724 1.844 4.74 4.399 4.88 1.445.08 3.624-.2 3.9 1.309.204 1.155-.706 2.065-1.79 2.315-1.6.365-2.8-.135-3.59-1.5-.345-.59-2.1-.36-2.725-.3a.3.3 0 0 0-.255.235.3.3 0 0 0 0 .125z"/>
</svg>
